X:5
T:Bill Malley's
R:barndance
C:Bill Malley
D:Martin Hayes: Under the Moon
Z:id:hn-barndance-5
M:C|
L:1/8
K:G
G3A B2GB | dedB G2d2 | B2G2 d2G2 | B2A2 A2D2 |
G3A B2GB | dedB G2Ac | B2AG E2DE |1 G4 G2D2 :|2 G4 G2g2 |
|: e2d2 g3e | dedB G2g2 | e2d2 g3d | B2A2 A2g2 |
e2d2 g3e | dedB G2Ac | B2AG E2DE |1 G4 G2g2 :|2 G4 G2D2 |

